assets/tel.svg

<svg width="18" height="18" viewBox="0 0 18 18" fill="none" xmlns="http://www.w3.org/2000/svg">
<path fill-rule="evenodd" clip-rule="evenodd" d="M1.76019 12.25L4.30019 11.96C4.91019 11.89 5.51019 12.1 5.94019 12.53L7.78019 14.37C10.6102 12.93 12.9302 10.62 14.3702 7.78L12.5202 5.93C12.0902 5.5 11.8802 4.9 11.9502 4.29L12.2402 1.77C12.3602 0.76 13.2102 0 14.2302 0H15.9602C17.0902 0 18.0302 0.94 17.9602 2.07C17.4302 10.61 10.6002 17.43 2.07019 17.96C0.940193 18.03 0.00019455 17.09 0.00019455 15.96V14.23C-0.00980568 13.22 0.750193 12.37 1.76019 12.25Z" fill="white"/>
</svg>

<svg width="18" height="18" fill="none" xmlns="http://www.w3.org/2000/svg"><path fill-rule="evenodd" clip-rule="evenodd" d="m1.76 12.25 2.54-.29c.61-.07 1.21.14 1.64.57l1.84 1.84c2.83-1.44 5.15-3.75 6.59-6.59l-1.85-1.85a1.99 1.99 0 0 1-.57-1.64l.29-2.52C12.36.76 13.21 0 14.23 0h1.73c1.13 0 2.07.94 2 2.07-.53 8.54-7.36 15.36-15.89 15.89-1.13.07-2.07-.87-2.07-2v-1.73c-.01-1.01.75-1.86 1.76-1.98Z" fill="#fff"/></svg>
